icons/svg/white-balance-auto.svg

﻿<?xml version="1.0" encoding="utf-8"?>
<!DOCTYPE svg PUBLIC "-//W3C//DTD SVG 1.1//EN" "http://www.w3.org/Graphics/SVG/1.1/DTD/svg11.dtd">
<svg xmlns="http://www.w3.org/2000/svg" xmlns:xlink="http://www.w3.org/1999/xlink" version="1.1" baseProfile="full" width="24" height="24" viewBox="0 0 24.00 24.00" enable-background="new 0 0 24.00 24.00" xml:space="preserve">
	<path fill="#000000" fill-opacity="1" stroke-width="0.2" stroke-linejoin="round" d="M 10.2997,15.9981L 9.5997,13.9981L 6.3997,13.9981L 5.6997,15.9981L 3.7997,15.9981L 6.9997,6.99807L 8.9997,6.99807L 12.1997,15.9981M 21.9997,6.99807L 20.7957,13.2901L 19.2997,6.99807L 17.6997,6.99807L 16.2097,13.2901L 14.9997,6.99807L 14.2387,6.99807C 12.7727,5.17107 10.5247,3.99807 7.9997,3.99807C 3.5817,3.99807 -0.00030009,7.57906 -0.00030009,11.9981C -0.00030009,16.4171 3.5817,19.9981 7.9997,19.9981C 11.1337,19.9981 13.8397,18.1911 15.153,15.5661L 15.2497,15.9981L 16.9997,15.9981L 18.4997,9.89806L 19.9997,15.9981L 21.7497,15.9981L 23.7997,6.99807M 6.8497,12.6481L 9.1497,12.6481L 7.9997,8.99807L 6.8497,12.6481 Z "/>
</svg>

<svg xmlns="http://www.w3.org/2000/svg" version="1.1" baseProfile="full" width="24" height="24" viewBox="0 0 24.00 24.00" xml:space="preserve"><path fill="#000" fill-opacity="1" stroke-width=".2" stroke-linejoin="round" d="M10.3 15.998l-.7-2H6.4l-.7 2H3.8l3.2-9h2l3.2 9m9.8-9l-1.204 6.292L19.3 6.998h-1.6l-1.49 6.292L15 6.998h-.76c-1.467-1.827-3.715-3-6.24-3-4.418 0-8 3.58-8 8s3.582 8 8 8c3.134 0 5.84-1.807 7.153-4.432l.097.432H17l1.5-6.1 1.5 6.1h1.75l2.05-9m-16.95 5.65h2.3L8 8.998l-1.15 3.65z"/></svg>
